icons/synergist_insecticide_bioassays.svg

<svg width="48" height="48" viewBox="0 0 48 48" fill="none" xmlns="http://www.w3.org/2000/svg">
<path fill-rule="evenodd" clip-rule="evenodd" d="M14 24C16.7614 24 19 26.2386 19 29C19 31.7614 16.7614 34 14 34C11.2386 34 9 31.7614 9 29C9 26.2386 11.2386 24 14 24ZM14 26C15.6569 26 17 27.3431 17 29C17 29.4631 16.8951 29.9018 16.7076 30.2934L12.7066 26.2924C13.0982 26.1049 13.5369 26 14 26ZM11.2924 27.7066C11.105 28.0982 11 28.5368 11 29C11 30.6569 12.3431 32 14 32C14.4632 32 14.9018 31.895 15.2934 31.7076L11.2924 27.7066Z" fill="black"/>
<path fill-rule="evenodd" clip-rule="evenodd" d="M11 6C10.4477 6 10 6.44772 10 7V10.3333C10 10.8856 10.4477 11.3333 11 11.3333H13V13H9C8.44772 13 8 13.4477 8 14C8 14.5523 8.44772 15 9 15H9.0625L6.16769 21.6167C6.05709 21.8695 6 22.1424 6 22.4184V41C6 41.5523 6.44772 42 7 42H21C21.5523 42 22 41.5523 22 41V22.4184C22 22.1424 21.9429 21.8695 21.8323 21.6167L18.9375 15H19C19.5523 15 20 14.5523 20 14C20 13.4477 19.5523 13 19 13H15V11.3333H17C17.5523 11.3333 18 10.8856 18 10.3333V7C18 6.44772 17.5523 6 17 6H11ZM11.2455 15L8 22.4184V40H20V22.4184L16.7545 15H11.2455ZM14 10C14.7364 10 15.3333 9.40305 15.3333 8.66667C15.3333 7.93029 14.7364 7.33333 14 7.33333C13.2636 7.33333 12.6667 7.93029 12.6667 8.66667C12.6667 9.40305 13.2636 10 14 10Z" fill="black"/>
<path d="M36.6767 31.4862C36.928 30.9944 36.733 30.392 36.2412 30.1407C35.7494 29.8894 35.147 30.0844 34.8957 30.5763L33.6069 33.099C33.5615 33.1879 33.5257 33.2793 33.4994 33.3719C33.3147 34.0205 33.5875 34.7311 34.1926 35.0805L35.6276 35.9089L35.4943 38.1307C35.3471 38.1563 35.203 38.1851 35.0621 38.2169C35.0692 37.9756 34.9896 37.731 34.8193 37.5339L32.5939 34.957C32.5583 34.9158 32.5206 34.8768 32.4812 34.84C32.205 34.5827 31.8401 34.4375 31.4587 34.4375H30.5218L28.8711 31.509C28.6 31.0278 27.9901 30.8576 27.509 31.1288C27.0279 31.4 26.8577 32.0099 27.1288 32.491L28.9946 35.8012C29.2162 36.1943 29.6324 36.4375 30.0836 36.4375H31.2298L33.2964 38.8303C32.8891 39.0321 32.5623 39.2491 32.3386 39.4546C32.0712 38.5956 30.8303 38.1387 29.4975 38.4294C28.5302 38.6404 27.7708 39.1893 27.4709 39.8156C27.4573 39.8241 27.4439 39.833 27.4306 39.8422C27.14 40.0435 26.8317 40.0393 26.6173 39.9005C26.4035 39.7621 26 39.2996 26 38C26 37.4477 25.5523 37 25 37C24.4477 37 24 37.4477 24 38C24 39.6674 24.5283 40.9306 25.5304 41.5794C26.4326 42.1635 27.4892 42.0951 28.3082 41.6475C28.8326 41.8643 29.516 41.9214 30.2254 41.7666C31.0586 41.5849 31.7375 41.1525 32.1014 40.6359C32.4034 41.4287 33.5054 42 37 42C41.375 42 42 41.1046 42 40C42 39.6121 41.2421 38.9985 40.0644 38.5532L41.1936 37.5102C41.7138 37.0296 41.8271 36.2507 41.4652 35.6419L40.5367 34.0798L41.7466 31.9286C42.0173 31.4472 41.8466 30.8375 41.3652 30.5668C40.8839 30.296 40.2742 30.4668 40.0034 30.9481L38.5808 33.4773C38.3616 33.8672 38.3673 34.3444 38.5958 34.7288L39.5391 36.3157L37.6862 38.0272C37.6261 38.0225 37.5656 38.0183 37.5048 38.0148L37.6425 35.7203C37.6447 35.6849 37.6455 35.6495 37.6452 35.6144C37.6396 35.087 37.3565 34.5977 36.8952 34.3314L35.604 33.5859L36.6767 31.4862Z" fill="black"/>
<path fill-rule="evenodd" clip-rule="evenodd" d="M41 19.8001C41.6156 20.1377 42 20.7847 42 21.4891V25.9999H32V21.4891C32 20.7847 32.3844 20.1377 33 19.8001V12.1999C32.3844 11.8623 32 11.2153 32 10.5109V6H42V10.5109C42 11.2153 41.6156 11.8623 41 12.1999V19.8001ZM35 12.1558C35 11.4513 34.6156 10.8043 34 10.4667V9.77143H40V10.4667C39.3844 10.8043 39 11.4513 39 12.1558V19.8442C39 20.5487 39.3844 21.1957 40 21.5333V22.2285H34V21.5333C34.6156 21.1957 35 20.5487 35 19.8442V12.1558Z" fill="black"/>
</svg>

<svg
  xmlns="http://www.w3.org/2000/svg"
  width="24"
  height="24"
  viewBox="0 0 24 24"
  fill="none"
  stroke="currentColor"
  stroke-width="2"
  stroke-linecap="round"
  stroke-linejoin="round"
>
  <path
    fill-rule="evenodd"
    d="M14 24a5 5 0 1 1 0 10 5 5 0 0 1 0-10m0 2a3 3 0 0 1 2.708 4.293l-4.001-4c.391-.188.83-.293 1.293-.293m-2.708 1.707a3 3 0 0 0 4.001 4.001z"
    clip-rule="evenodd"
  />
  <path
    fill-rule="evenodd"
    d="M11 6a1 1 0 0 0-1 1v3.333a1 1 0 0 0 1 1h2V13H9a1 1 0 1 0 0 2h.063l-2.895 6.617a2 2 0 0 0-.168.801V41a1 1 0 0 0 1 1h14a1 1 0 0 0 1-1V22.418a2 2 0 0 0-.168-.801L18.937 15H19a1 1 0 1 0 0-2h-4v-1.667h2a1 1 0 0 0 1-1V7a1 1 0 0 0-1-1zm.245 9L8 22.418V40h12V22.418L16.755 15zM14 10a1.333 1.333 0 1 0 0-2.667A1.333 1.333 0 0 0 14 10"
    clip-rule="evenodd"
  />
  <path d="M36.677 31.486a1 1 0 1 0-1.781-.91l-1.29 2.523q-.066.134-.107.273a1.5 1.5 0 0 0 .694 1.709l1.435.828-.134 2.222a9 9 0 0 0-.432.086 1 1 0 0 0-.243-.683l-2.225-2.577a1.5 1.5 0 0 0-1.135-.52h-.937l-1.65-2.928a1 1 0 1 0-1.743.982l1.866 3.31a1.25 1.25 0 0 0 1.089.636h1.146l2.066 2.393a4.2 4.2 0 0 0-.957.625c-.268-.86-1.509-1.316-2.841-1.026-.968.211-1.727.76-2.027 1.387l-.04.026c-.291.202-.6.197-.814.059C26.404 39.762 26 39.3 26 38a1 1 0 1 0-2 0c0 1.667.528 2.93 1.53 3.58.903.584 1.96.515 2.778.068.525.216 1.208.273 1.917.119.834-.182 1.512-.614 1.876-1.131C32.403 41.429 33.505 42 37 42c4.375 0 5-.895 5-2 0-.388-.758-1.001-1.936-1.447l1.13-1.043a1.5 1.5 0 0 0 .271-1.868l-.928-1.562 1.21-2.151a1 1 0 0 0-1.744-.98l-1.422 2.528c-.22.39-.214.867.015 1.252l.943 1.587-1.853 1.711-.181-.012.137-2.295a1.5 1.5 0 0 0-.747-1.389l-1.291-.745z" />
  <path
    fill-rule="evenodd"
    d="M41 19.8c.616.338 1 .985 1 1.69V26H32v-4.51c0-.705.384-1.352 1-1.69v-7.6c-.616-.338-1-.985-1-1.69V6h10v4.51c0 .705-.384 1.352-1 1.69zm-6-7.644c0-.705-.384-1.352-1-1.69v-.695h6v.696c-.616.337-1 .984-1 1.689v7.688c0 .705.384 1.352 1 1.69v.695h-6v-.696c.616-.337 1-.984 1-1.689z"
    clip-rule="evenodd"
  />
</svg>
